svg/300/outlined/view_column_2-fill.svg

<svg xmlns="http://www.w3.org/2000/svg" width="48" height="48" viewBox="0 -960 960 960"><path d="M578.078-140.001q-23.529 0-40.611-17.082-17.082-17.082-17.082-40.611v-564.612q0-23.529 17.082-40.611 17.082-17.082 40.611-17.082h171.92q23.529 0 40.61 17.082 17.082 17.082 17.082 40.611v564.612q0 23.529-17.082 40.611-17.081 17.082-40.61 17.082h-171.92Zm-368.076 0q-23.529 0-40.61-17.082-17.082-17.082-17.082-40.611v-564.612q0-23.529 17.082-40.611 17.081-17.082 40.61-17.082h171.92q23.529 0 40.611 17.082 17.082 17.082 17.082 40.611v564.612q0 23.529-17.082 40.611-17.082 17.082-40.611 17.082h-171.92Z"/></svg>

<svg xmlns="http://www.w3.org/2000/svg" width="48" height="48" viewBox="0 -960 960 960"><path d="M578.08-140q-23.53 0-40.61-17.08t-17.08-40.61v-564.62q0-23.53 17.08-40.61T578.08-820H750q23.53 0 40.61 17.08t17.08 40.61v564.62q0 23.53-17.08 40.61T750-140H578.08ZM210-140q-23.53 0-40.61-17.08t-17.08-40.61v-564.62q0-23.53 17.08-40.61T210-820h171.92q23.53 0 40.61 17.08t17.08 40.61v564.62q0 23.53-17.08 40.61T381.92-140H210Z"/></svg>
